X: 145
T: Warley Common
%R: jig
B: Chas & Sam Thompson "Twenty Four Country Dances for the Year 1779", London 1779, p.73 #1
F: http://www.vwml.org/browse/browse-collections-dance-tune-books/browse-thompsons1779
Z: 2014 John Chambers <jc:trillian.mit.edu> (added dance description)
M: 6/8
L: 1/8
K: D
% - - - - - - - - - - - - - - - - - - - - - - - - - - - - -
|:\
a2a fef | d3 A3 | Bcd efg | efd cBA |\
a2a fef | d3 A3 | Bgf edc | d3 D3 :|
|:\
F3 GFG | A2A [A3F3] | c2d e2d | g2f e3 |\
agf edc | BAG Feg | fed ABc | d3 D3 :|
% - - - - - - - - - - Dance description - - - - - - - - - -
%%begintext align
%%    Hey contrary sides .|. Hey on your own
%% sides :|. lead down two Cu. up again and
%% cast off .|: hands six round :|:
%%endtext

%%sep 1 1 500
%%sep 1 1 500
